X: 1
T: Reel De Joliette
M: 4/4
L: 1/8
R: reel
K: Fmaj
FG |: AAGF AAGF | AAGF DFFG | AAGF AAGF |[1 AFGE FFFG :|[2 AFGE FFFA ||
|: cAdA cAFG | AFAF DGAB | cAdA cAFG |[1 AFGE F2FA :|[2 AFGE F2CF |]
